src/img/play.svg

<svg width="16" height="16" viewBox="0 0 16 16" fill="none" xmlns="http://www.w3.org/2000/svg">
<path d="M10.8039 8.00003L5 4.63291L5 11.3671L10.8039 8.00003ZM11.5964 7.30373C12.1345 7.6159 12.1345 8.38415 11.5964 8.69633L5.23279 12.3882C4.71256 12.69 4 12.3452 4 11.6919L4 4.30816C4 3.6549 4.71256 3.31005 5.23279 3.61186L11.5964 7.30373Z" fill="black"/>
</svg>

<svg width="16" height="16" viewBox="0 0 16 16" fill="none" xmlns="http://www.w3.org/2000/svg"><path d="m10.8 8-5.8-3.37v6.74l5.8-3.37Zm.8-.7a.8.8 0 0 1 0 1.4l-6.37 3.69c-.52.3-1.23-.04-1.23-.7v-7.38c0-.66.71-1 1.23-.7l6.37 3.7Z" fill="#000"/></svg>
